!!!!SEGMENT: pl-wtm--r-1401_stefani-jozef-bartek-mazur-na-zadanie.krn
!!!id: 18xx:2418
!!!COM: Stefani, Józef
!!!OTL: Bartek Mazur na żądanie
!!!PDT:
!!!SMS-siglum: PL-Wtm
!!!SMS-shelfmark: R 1401
!!!NIFC-rismID: 1001117881
!!!URL-scan: http://repozytorium.nifc.pl/skany/pl-wtm-nut--r1401
!!!ONB-nifc:
!!!SMS-variant:
!!!SMS-altvar:
**kern	**kern	**dynam
*part2	*part1	*part1
*staff2	*staff1	*
*I"Fortepiano	*I"Fortepiano	*
*clefF4	*clefG2	*
*k[f#c#]	*k[f#c#]	*
*M3/8	*M3/8	*
*>[A,A,B,C,C,D,E,E,F,F,A,A,B,C,C,G]	*>[A,A,B,C,C,D,E,E,F,F,A,A,B,C,C,G]	*
=1!|:	=1!|:	=1!|:
*>A	*>A	*>A
*2\right	*2\right	*
!	!LO:TX:t=P:problem:all\right:global	!
!	!LO:TX:i:a:t=Mazur.	!LO:DY:b
8BB-XL 8BBB-X/	8eL 8d 8G/	sf
8AA 8AAA/	8g 8c# 8A/	.
8AAJ 8AAA/	8eJ 8c# 8A/	.
=2	=2	=2
8DD/	16.f#LL 16.d 16.A/	.
.	32aJJk 32f# 32d/	.
8F#L 8D 8AA/	8dL 8A/	.
8F#J 8D 8AA/	8f#J 8d 8A/	.
=3	=3	=3
!	!	!LO:DY:b
8BB-X 8BBB-X/	8e 8d 8G/	sf
.	(<32qqe/LLL	.
.	32qqf#/JJJ	.
8AAL 8AAA/	8g/L)	.
8AAJ 8AAA/	8eJ 8c#/	.
=4	=4	=4
8DD/	16.f#/LL	.
.	32c#/JJk	.
8F#L 8D 8AA/	8d/L	.
8F#J 8D 8AA/	8A/J	.
=5	=5	=5
!	!	!LO:DY:b
8BB-X 8BBB-X/	8eL 8d 8G/	sf
8AAL 8AAA/	8g 8c# 8A/	.
8AAJ 8AAA/	8eJ 8c# 8A/	.
!!LO:LB:g=original
=6	=6	=6
8DD/	16f#LL 16d 16A/	.
.	32r	.
.	(<8qg#X/	.
.	32a/JJ)	.
8F#L 8D 8AA/	8d/L	.
8F#J 8D 8AA/	8f#/J 8d	.
=7	=7	=7
*tremolo	*	*
8AL 8AA\	16.eLL 16.c#/	.
!	!	!LO:HP:b
.	32f#K 32d/	<
8A 8AA\	16.g 16.e/	.
.	32aK 32f#/	.
8AJ 8AA\	16.b 16.g/	.
.	32cc#JJk 32g 32e/	[
*Xtremolo	*	*
=8	=8	=8
!	!	!LO:DY:b:rj
16.BLL 16.BB\	16.ddLL 16.f# 16.d/	f
32AJJk 32AA\	32eeJJk 32cc# 32a/	.
8DL 8DD/	8ff#L 8dd 8a\	.
8C#J 8CC#/	8aaJ 8ee 8a\	.
=9	=9	=9
16.DLL 16.DD/	16.ff#LL 16.dd 16.a\	.
32EJJk 32EE/	32cc#JJk 32a\	.
8F#L 8FF#/	8ddL 8a\	.
8C#J 8CC#/	8aaJ 8ee 8a\	.
=10	=10	=10
16.DLL 16.DD/	16.ff#LL 16.dd 16.a\	.
32EJJk 32EE/	32cc#JJk 32a\	.
8F#L 8GG/	8ddL 8a\	.
8GJ 8GG/	8bJ 8g\	.
!!LO:LB:g=original
=11	=11	=11
8A 8AA\	16.aLL 16.f#\	.
.	32aaK 32ff#\	.
8GL 8E 8AA\	16.gg\	.
.	32ee\K	.
8GJ 8E 8AA\	16.b\	.
.	32cc#\JJk	.
=12	=12	=12
16.F#LL 16.D\	16.dd\LL	.
32AJJk 32AA\	32eeJJk 32cc# 32a\	.
8AL 8D\	8ff#L 8dd 8a\	.
8BJ 8BB\	8dddJ 8ff# 8dd^<\	.
=13	=13	=13
8G 8GG/	16.ccc#\LL	.
.	32bb\K	.
8GL 8E 8AA/	16.aa\	.
.	32gg\K	.
8GJ 8E 8AA/	16.b\	.
.	32cc#\JJk	.
=14	=14	=14
16.F#LL 16.D\	16.dd\LL	.
32AJJk 32AA\	32eeJJk 32cc# 32a\	.
8AL 8D\	8ff#L 8dd 8a\	.
8BJ 8BB\	8dddJ 8ff# 8dd^<\	.
=15	=15	=15
8G 8GG/	16.ccc#\LL	.
.	32bb\K	.
8GL 8E 8AA\	16.aa\	.
.	32gg\K	.
8GJ 8E 8AA\	16.b\	.
.	32cc#\JJk	.
!!LO:LB:g=original
=16	=16	=16
8F# 8D\	8dd\	.
8D 8DD/	8ddd 8ff# 8dd\	.
8r	8r	.
=17:|!	=17:|!	=17:|!
*>B	*>B	*>B
!	!	!LO:DY:b:rj
16.ALL 16.E 16.AA/	16.aaLL 16.cc# 16.a\	ff
32AJJk 32E 32AA/	32aaJJk 32cc# 32a\	.
8AL 8E 8AA/	8aaL 8cc# 8a\	.
8AJ 8E 8AA/	8eeJ 8cc# 8a\	.
=18	=18	=18
*tremolo	*	*
8AL 8F# 8D\	16ff#LL 16dd 16a'>\	.
.	(>64aa\LL	.
.	64gg\	.
.	64ff#\	.
.	64ee\JJJJ	.
8A 8F# 8D\	8dd\L)	.
8AJ 8F# 8D\	8dddJ 8ff# 8dd\	.
*Xtremolo	*	*
=19	=19	=19
16.ALL 16.E 16.AA/	16.aaLL 16.cc# 16.a\	.
32AJJk 32E 32AA/	32aaJJk 32cc# 32a\	.
8AL 8E 8AA/	8aaL 8cc# 8a\	.
8AJ 8E 8AA/	8eeJ 8cc# 8a\	.
!!LO:LB:g=original
=20	=20	=20
8A 8F# 8D\	16ff#LL 16dd 16a'>\	.
.	(>32cc#\L	.
.	32dd\JJJ)	.
8BL 8G#X 8E#X 8D\	(>8bT>\L	.
8AJ 8F# 8D\	8a\J)	.
=21	=21	=21
16.GLL 16.GG/	16.bbLL 16.dd 16.b\	.
32GJJk 32GG/	32bbJJk 32dd 32b\	.
8GL 8GG/	8bbL 8dd 8b\	.
8GJ 8GG/	8ggJ 8dd 8b\	.
=22	=22	=22
16.F#LL 16.FF#/	16.aaLL 16.dd 16.a\	.
32F#JJk 32FF#/	32aaJJk 32dd 32a\	.
8F#L 8FF#/	8aaL 8dd 8a\	.
8F#J 8FF#/	8ddJ 8a\	.
=23	=23	=23
!	!LO:TUP:a:problem:klamra łukowa	!
8G 8GG/	24ee\LL	.
.	24ff#\	.
.	24gg\JJ	.
8eL 8B 8G\	8b\L	.
8gJ 8e 8A\	8cc#\J	.
=24	=24	=24
.	(<8qee/	.
16f#LL 16d\	16dd\LL)	.
16AJJ 16AA\	16ccc#JJ 16aa 16gg 16ee\	.
8D 8DD/	8ddd 8aa 8ff# 8dd\	.
8r	8r	.
!!LO:LB:g=original
=25!|:	=25!|:	=25!|:
*>C	*>C	*>C
!	!	!LO:DY:b:rj
8BB/	16.ff#\LL	p
.	32ff#\JJk	.
8BL 8F# 8D\	8gg\L	.
8BJ 8F# 8D\	8ff#\J	.
=26	=26	=26
*rep	*	*
8BB/	16.ee#X\LL	.
.	32ff#\JJk	.
8BL 8F# 8D\	8dd\L	.
8BJ 8F# 8D\	8b\J	.
*Xrep	*	*
=27	=27	=27
!	!LO:TUP:b:problem:klamra łukowa	!
8FF#/	24cc#/LL	.
.	24a#X/	.
.	24f#/JJ	.
8A#XL 8F# 8E\	4ff#\	.
8A#J 8F# 8E\	.	.
=28	=28	=28
*rep	*	*
!	!LO:TUP:a:problem:klamra łukowaa	!
8FF#/	24ccc#\LL	.
.	24aa#X\	.
.	24ff#\JJ	.
.	(<8qeee#X/	.
8A#XL 8F# 8E\	4fff#\)	.
8A#J 8F# 8E\	.	.
*Xrep	*	*
=29	=29	=29
8BB/	16.ff#\LL	.
.	32ff#\JJk	.
.	(<8qaa/	.
8BL 8F# 8D\	8gg\L)	.
8BJ 8F# 8D\	8ff#\J	.
=30	=30	=30
*rep	*Xtuplet	*
8BB/	24ee#X'>\LL	.
.	(>24gg\	.
.	24ff#\JJ)	.
8BL 8F# 8D\	8b\L	.
8BJ 8F# 8D\	8dd\J	.
*Xrep	*	*
!!LO:PB:g=original
=31	=31	=31
8AA/	(>32a\LLL	.
.	32cc#\	.
.	32ee\	.
.	32gg\JJJ	.
8AL 8G 8E\	8aa\L)	.
8AJ 8G 8E\	8ccc#'>\J	.
=32	=32	=32
.	(<8qeee/	.
16A 16F# 16D\	16ddd\LL)	.
16r	(>32ccc#\L	.
.	32ddd\JJJ)	.
8A 8F# 8D\	8dd\	.
8r	(>32dd\LLL	.
.	32ee\	.
.	32ff#\	.
!	!	!LO:DY:b:rj
.	32gg\JJJ	ff
=33	=33	=33
16.ALL 16.E 16.AA\	16.aaLL 16.cc# 16.a\)	.
32AJJk 32E 32AA\	32aaJJk 32cc# 32a\	.
8AL 8E 8AA\	8aaL 8cc# 8a\	.
8AJ 8E 8AA\	8eeJ 8cc# 8a\	.
=34	=34	=34
*tremolo	*	*
8AL 8F# 8D\	16ff#|>LL 16dd 16a\	.
.	(>64aa\LL	.
.	64gg\	.
.	64ff#\	.
.	64ee\JJJJ	.
8A 8F# 8D\	8dd\L)	.
8AJ 8F# 8D\	8dddJ 8ff# 8dd\	.
*Xtremolo	*	*
!!LO:LB:g=original
=35	=35	=35
16.ALL 16.E 16.AA\	16.aaLL 16.cc# 16.a\	.
32AJJk 32E 32AA\	32aaJJk 32cc# 32a\	.
8AL 8E 8AA\	8aaL 8cc# 8a\	.
8AJ 8E 8AA\	8eeJ 8cc# 8a\	.
=36	=36	=36
8A 8F# 8D\	16ff#LL 16dd 16a'>\	.
.	(>32cc#\L	.
.	32dd\JJJ)	.
(>8BL 8G#X 8E#X 8D\	(<8bT>/L	.
8AJ 8F# 8D\)	8a/J)	.
=37	=37	=37
16.GLL 16.GG/	16.bbLL 16.dd 16.b\	.
32GJJk 32GG/	32bbJJk 32dd 32b\	.
8GL 8GG/	8bbL 8dd 8b\	.
8GJ 8GG/	8ggJ 8dd 8b\	.
=38	=38	=38
16.F#LL 16.FF#/	16.aaLL 16.dd 16.a\	.
32F#JJk 32FF#/	32aaJJk 32dd 32a\	.
8F#L 8FF#/	8aaL 8dd 8a\	.
8F#J 8FF#/	8dd 8a\J	.
=39	=39	=39
*	*tuplet	*
!	!LO:TUP:a:problem:klamra łukowa	!
8G 8GG\	24ee\LL	.
.	24ff#\	.
.	24gg\JJ	.
8eL 8B 8G\	8b\L	.
8gJ 8e 8A\	8cc#\J	.
=40	=40	=40
.	(<8qee/	.
16f#LL 16d\	16dd\LL)	.
16AJJ 16AA\	16ccc#JJ 16aa 16gg 16ee\	.
8D 8DD/	8ddd 8aa 8ff# 8dd\	.
!LO:TX:i:a:t=fine	!LO:TX:a:t=P:problem:fermata na kresce taktowej	!
8r	8r;>	.
!!LO:LB:g=original
=41:|!	=41:|!	=41:|!
*>D	*>D	*>D
*k[f#]	*k[f#]	*
!	!LO:TX:i:a:t=Trio.	!LO:DY:b:rj
!LO:TX:t=P:problem:kolejność znaków Cn F#	!LO:TX:t=P:problem:kolejność znaków ccn ff#	!
16.GLL 16.D 16.GG\	16.gLL 16.d 16.B/	f
32GJJk 32D 32GG\	32gJJk 32d 32B/	.
8GL 8D 8GG\	8gL 8d 8B/	.
8GJ 8D 8GG\	8gJ 8d 8B/	.
=42	=42	=42
*tremolo	*tremolo	*
8GL 8D 8GG\	8gL 8d 8B/	.
8G 8D 8GG\	8g 8d 8B/	.
8GJ 8D 8GG\	8gJ 8d 8B/	.
*Xtremolo	*Xtremolo	*
=43!|:	=43!|:	=43!|:
*>E	*>E	*>E
!LO:TX:t=P:problem:mixed beam	!	!LO:DY:b:rj
8GG/L	16.dd|>\LL	p
.	32b|>\JJk	.
8B 8G 8D\	8ee'>\L	.
8BJ 8G 8D\	8dd'>\J	.
=44	=44	=44
*rep	*	*
!LO:TX:t=P:problem:mixed beam	!	!
8GG/L	16.b|</LL	.
.	32g|</JJk	.
.	(<8qdd/	.
8B 8G 8D\	8cc/L)	.
8BJ 8G 8D\	8b'</J	.
*Xrep	*	*
=45	=45	=45
*^	*	*
4.D/	8D\L	(<8.dd/L	.
.	8c 8A\	.	.
.	.	16cc/L	.
.	8cJ 8A\	16a/	.
.	.	16f#/JJ)	.
*v	*v	*	*
=46	=46	=46
!LO:TX:t=P:problem:mixed beam	!	!
8GG/L	16.g|</LL	.
.	32b|</JJk	.
8A#X 8G 8C#X\	(<32e/LL	.
.	32f#/L	.
.	16e/JJ)	.
8BJ 8G 8D\	8d/J	.
!!LO:LB:g=original
=47	=47	=47
!LO:TX:t=P:problem:mixed beam	!	!
8GG/L	16.dd\LL	.
.	32b\JJk	.
8B 8G 8D\	8ee\L	.
8BJ 8G 8D\	8dd\J	.
=48	=48	=48
*rep	*	*
!LO:TX:t=P:problem:mixed beam	!	!
8GG/L	16.cc#X\LL	.
.	32dd\JJk	.
8B 8G 8D\	8b\L	.
!	!LO:TUP:a	!
8BJ 8G 8D\	(>24dd\L	.
.	24ee\	.
.	24ee#X\JJ	.
*Xrep	*	*
=49	=49	=49
!LO:TX:t=P:problem:mixed beam	!	!
8FF#/L	8.ff#\L)	.
8d 8B 8F#\	.	.
.	(>16ee\L	.
8eJ 8A#X 8F#\	16cc#X\	.
.	16dd\JJ)	.
=50	=50	=50
*tremolo	*	*
8dL 8B\	(>4b\	.
8d 8B\	.	.
8dJ 8B\	8bb\)	.
*Xtremolo	*	*
=51:|!|:	=51:|!|:	=51:|!|:
*>F	*>F	*>F
!	!	!LO:DY:b:rj
8D 8DD/	16.dddLL 16.dd\	f
.	32cccJJk 32cc\	.
8cL 8A 8F# 8D\	8aaL 8a\	.
8cJ 8A 8F# 8D\	8ddJ 8d\	.
=52	=52	=52
8GG/	16.eeeLL 16.ee\	.
.	32dddJJk 32dd\	.
8BL 8G 8D\	8bbL 8b\	.
8BJ 8G 8D\	8ggJ 8g\	.
!!LO:LB:g=original
=53	=53	=53
!	!LO:TUP:b:problem:klamra łukowa	!
8C 8CC/	24a/LL	.
.	24b/	.
.	24cc/JJ	.
8AL 8E 8C\	8e/L	.
8cJ 8A 8D\	8f#/J	.
=54	=54	=54
8GG/	8g/	.
8BL 8G 8D\	(<32g/LLL	.
.	32a/	.
.	32b/	.
.	32cc/JJJ)	.
8BJ 8G 8D\	8dd\	.
=55	=55	=55
8D 8DD/	(>32dd\LLL	.
.	32ee\	.
.	32dd\	.
.	32cc\JJJ	.
8cL 8A 8F# 8D\	8a/L)	.
8cJ 8A 8F# 8D\	8d'</J	.
=56	=56	=56
8GG/	(>32ee\LLL	.
.	32ff#\	.
.	32ee\	.
.	32dd\JJJ	.
8BL 8G 8D\	8b\L)	.
!	!LO:TX:t=P:problem:w źródle dwa takty wykreslone oraz tekst: "mazur da capo"	!
8BJ 8G 8D\	8g'>\J	.
!!LO:LB:g=original
=57	=57	=57
*^	*	*
4.AA/	8AA\L	(<32cc#X/LLL	.
.	.	32dd/	.
.	.	32cc#/	.
.	.	32b/JJJ	.
.	8G 8E\	(<8a/L)	.
.	8GJ 8E\	16.g/L)	.
.	.	32c#X|</JJk	.
*v	*v	*	*
=58	=58	=58
8F# 8D\	8d/	.
8D 8DD/	8dd 8f# 8d/	.
8r	8r	.
!!LO:PB:g=original
=59	=59	=59
!LO:TX:t=P:problem:mixed beam	!	!LO:DY:b:rj
8GG/L	16.dd\LL	p
.	32b\JJk	.
8B 8G 8D\	8ee\L	.
8BJ 8G 8D\	8dd\J	.
=60	=60	=60
*rep	*	*
!LO:TX:t=P:problem:mixed beam	!	!
8GG/L	16.b/LL	.
.	32g/JJk	.
.	(<8qdd/	.
!	!LO:TX:a:t=P:problem:nuta przekreślona	!
8B 8G 8D\	8cc/L)	.
8BJ 8G 8D\	8b/J	.
*Xrep	*	*
=61	=61	=61
*^	*	*
4.D/	8D\L	8.dd/L	.
.	8c 8A\	.	.
.	.	16cc/L	.
.	8cJ 8A\	16a/	.
.	.	16f#/JJ	.
*v	*v	*	*
=62	=62	=62
!LO:TX:t=P:problem:mixed beam	!	!
8GG/L	16.g/LL	.
.	32b/JJk	.
8A#X 8G 8C#X\	(<32e/LL	.
.	32f#/L	.
.	16e/JJ)	.
8BJ 8G 8D\	8d'</J	.
=63	=63	=63
8GG\L	16.dd\LL	.
.	32b\JJk	.
8B 8G 8D\	8ee\L	.
8BJ 8G 8D\	8dd\J	.
!!LO:LB:g=original
=64	=64	=64
!LO:TX:t=P:problem:mixed beam	!	!
8GG/L	16.b/LL	.
.	32g/JJk	.
.	(<8qdd/	.
8B 8G 8D\	8cc/L)	.
8BJ 8G 8D\	8b'</J	.
=65	=65	=65
!	!LO:TUP:b:problem:klamra łukowa	!
8AL 8E-X 8C\	24a/LL	.
.	24b/	.
.	24cc/JJ	.
8A 8E- 8C\	(<8e-X/L	.
8cJ 8A 8D\	16d/L)	.
.	16f#'</JJ	.
=66	=66	=66
8B 8G\	8g/	.
8G 8GG/	8gg 8dd 8b\	.
!	!LO:TX:i:b:t=Mazur\nda capo al fine\ne poi la Coda	!
!	!LO:TX:a:t=P:problem:fermata na kresce taktowej	!
8r	8r;>	.
!!LO:LB:g=original
=67:|!	=67:|!	=67:|!
*>G	*>G	*>G
*k[f#c#]	*k[f#c#]	*
!	!LO:TX:i:a:t=Coda	!
8BL 8F# 8D 8BB\	32ff#\LLL	.
.	32dd\	.
.	32ff#\	.
.	32bb\JJ	.
8BJ 8F# 8D 8BB\	8dddJ 8dd\	.
8r	8r	.
=68	=68	=68
.	(<8qee/	.
*^	*	*
4.GG/	8GG\L	8.eee\L)	.
.	8G 8E 8BB\	.	.
.	.	16ddd\L	.
.	8GJ 8E 8BB\	16ccc#\	.
.	.	16bb\JJ	.
=69	=69	=69	=69
4.AA/	8AA\L	16aa\LL	.
.	.	32fff#\L	.
.	.	32ddd\JJJ	.
.	8F# 8D\	8aa\L	.
.	8F#J 8D\	8ff#\J	.
=70	=70	=70	=70
4.AA/	8AA\L	(>8.bb\L	.
.	8G 8C#\	.	.
.	.	16aa\L	.
.	8GJ 8C#\	16gg\	.
.	.	16ee\JJ)	.
*v	*v	*	*
=71	=71	=71
8F#L 8D\	(>32ff#\LLL	.
.	32dd\	.
.	32ff#\	.
.	32aa\JJ)	.
8AJ 8F# 8D\	8dddJ 8dd\	.
8r	8r	.
!!LO:LB:g=original
=72	=72	=72
8BL 8F# 8D 8BB\	(>32ff#\LLL	.
.	32dd\	.
.	32ff#\	.
.	32bb\JJ	.
8BJ 8F# 8D 8BB\	8dddJ 8dd)\	.
8r	8r	.
=73	=73	=73
.	8qee/	.
*^	*	*
4GG/	8GG\L	8.eee\L	.
.	8GJ 8E 8BB\	.	.
.	.	16ddd\Jk	.
.	.	(<8qddd/	.
8E#X 8D 8BB 8GG#X'>\	8ryy	16ccc#\LL)	.
.	.	16bb'>\JJ	.
*v	*v	*	*
=74	=74	=74
*tremolo	*	*
8F#L 8D 8AA\	16aa\LL	.
.	32ddd\L	.
.	32fff#\JJJ	.
8F# 8D 8AA\	8ddd\L	.
8F#J 8D 8AA\	8aa\J	.
=75	=75	=75
8G\L 8E\ 8AA\	(>16gg#X\LL	.
.	16aa\JJ)	.
8G 8E 8AA\	(>16aa#X\LL	.
.	16bb\JJ)	.
8GJ 8E 8AA\	(>16bb#X\LL	.
.	16ccc#\JJ)	.
*Xtremolo	*	*
=76||	=76||	=76||
!	!LO:TX:i:a:t=piu All.o.	!
16.F#LL 16.D/	8ddd\	.
32F#JJk 32FF#/	.	.
8AL 8AA/	8r	.
8AAJ 8AAA/	8ccc# 8aa 8gg 8ee\	.
!!LO:LB:g=original
=77	=77	=77
16.DLL 16.DD/	8ddd 8aa 8ff# 8dd\	.
32F#JJk 32FF#/	.	.
8AL 8AA/	8r	.
8AAJ 8AAA/	8ccc# 8aa 8gg 8ee\	.
=78	=78	=78
8D 8DD/	8ddd 8aa 8ff#\	.
8r	8r	.
8r	8r	.
=79	=79	=79
8d 8A 8F# 8D\	8fff# 8ddd 8aa\	.
8.r	8.r	.
16D 16DD/	16d/	.
=80	=80	=80
4.D 4.DD/	4.d/	.
=81||	=81||	=81||
!	!LO:TX:i:b:t=sec	!
8D 8AA 8FF# 8DD/	8ddd 8aa 8ff# 8dd\	.
8r	8r	.
8r	8r	.
==	==	==
*-	*-	*-
!!!system-decoration: {(s1,s2)}
!!!RDF**kern: | = vertical stroke
!!!RDF**kern: > = above
!!!RDF**kern: < = below
!!!ENC: Marcin Jachim
!!!END: 2021-06-14
!!!EED: Antoni Szymański
!!!EST: 2021-06-25
